!!!OTL: Wie ist doch die Falschheit so gro&szlig; (Band 1), S. 139
!!!id: P0819
**kern
*clefG2
*k[b-]
*F:
{4c
=1
4f
4f
4g
=2
4a
4a
8f
8g
=3
4a
4a
4b-
=4
4cc}
4r
=5
{8a
8b-
=6
4cc
8cc
8cc
8ff
8dd
=7
4cc
8cc}
=8
{8b-
8b-
8b-
=9
4cc
4cc
4b-
=10
2a}
==
*-
!!!minrhy: 8
!!!meters: 3/4 ]  ZZ[3
!!!cut: Wie ist doch die Falschheit so gro&szlig; (Band 1), S. 139
!!!reg: Lothringen
!!!trd: PINCK, Louis: Verklingende Weisen, Bd 1, Metz 1928
!!!rhy1: X_  X_X_X_  X_X_XX  X_X_X_  X_0_
!!!rhy2: XX  X_XXXX  X_X
!!!key: P0819  08  F 3/4 ]  ZZ[3
!!!mod: SECHSTONSKALA DUR ?]  AMBITUS[11
!!!kad: 553
!!!akz: 1335_55_53_
!!!fot: 'a__b__c__
!!!for: 'a__b__aw_
!!!fok: '/__^a_\__
!! PHRAS[AUFTAKTIG]
!!!fkt: Soldatenlied, Klage
!! LOTH VKL
!! PR[29] 2K[0] 2G[4] 3K[18] 3G[4] 4A[4] 4Ü[0] 5A[0] 6K[0] 6G[0]
!! 7K[0] 7G[0] 8A[0] MEHR[0] SI[29] ABS[28] SR[4] SP[25]
!! ST[8] 2k[11] 2g[18] 3k[7] 3g[0] 4d[7] 4ü[0] 5d[0] 6k[0] 6g[0]
!! 7k[0] 7g[0] 8d[0] mehr[0] si[43] dm[-14] sr[29] sp[14]
!! 1F[32] 2F[45] 3F[16] 4F[0] LF[0] 2P[6] 3P[0] 4P[0] TRI[0] DF[4] AB[31]
!! TF[0] U3K[0] U3[0] U4[0] U4Ü[0] U5[3] U6K[0] U6[0] U7K[0] U7[0]
!! N1[7] N2K[0] N2[10] N3K[0] N3[24] N4[14] N4Ü[0] N5[38] N6K[0] N6[3]
!!!n7k: 0] N7[0] O1[0] O2K[0] O2[0] O3K[0] O3[0] HÖ[0
!!!RNB: symbol: &szlig; = sz ligature (UTF-8: ÃŸ)
